packages/calcite-ui-icons/icons/mosaic-method-blend-16.svg

<?xml version="1.0" encoding="UTF-8"?><svg id="icons" xmlns="http://www.w3.org/2000/svg" viewBox="0 0 16 16"><defs><style>.cls-1{fill:none;}.cls-2{fill:#595959;}.cls-3{opacity:.5;}.cls-4{opacity:.25;}</style></defs><path class="cls-2" d="M13,10v3h-3v-1h2v-2h1Z"/><path class="cls-4" d="M12,10v2h-2v-2h2ZM5,1.00067v.99866c.00018.00024.00024.00037.00043.00067h.99957v-1h-.99957c-.00018.00024-.00024.00037-.00043.00067ZM7,4h1v-1h-1v1ZM7,1.00067v.99866c.00018.00024.00024.00037.00043.00067h.99957v-1h-.99957c-.00018.00024-.00024.00037-.00043.00067ZM3,7h1v-1h-1v1ZM1,5h1v-1h-1v1Z"/><path d="M7,12h1v1h-2v-7h7v2h-1v-1h-5v5ZM16,9v7h-7v-7h7ZM15,10h-5v5h5v-5ZM11,5h-7V0h7v5ZM6,3h-1v1h1v-1ZM6,1h-1v1h1v-1ZM8,3h-1v1h1v-1ZM8,1h-1v1h1v-1ZM10,3h-1v1h1v-1ZM10,1h-1v1h1v-1ZM4,6h1v2H0V3h3v4h1v-1ZM2,6h-1v1h1v-1ZM2,4h-1v1h1v-1Z"/><path class="cls-3" d="M10,4h-1v-1h1v1ZM7,7v5h1v-4h4v-1h-5Z"/><rect class="cls-1" width="16" height="16"/></svg>

<svg xmlns="http://www.w3.org/2000/svg" viewBox="0 0 16 16"><path d="M13 10v3h-3v-1h2v-2h1z" fill="#595959"/><path d="M12 10v2h-2v-2h2zM5 1v1h1V1H5zm2 3h1V3H7v1zm0-3v1h1V1H7zM3 7h1V6H3v1zM1 5h1V4H1v1z" opacity=".25"/><path d="M7 12h1v1H6V6h7v2h-1V7H7v5zm9-3v7H9V9h7zm-1 1h-5v5h5v-5zm-4-5H4V0h7v5zM6 3H5v1h1V3zm0-2H5v1h1V1zm2 2H7v1h1V3zm0-2H7v1h1V1zm2 2H9v1h1V3zm0-2H9v1h1V1zM4 6h1v2H0V3h3v4h1V6zM2 6H1v1h1V6zm0-2H1v1h1V4z"/><path d="M10 4H9V3h1v1zM7 7v5h1V8h4V7H7z" opacity=".5"/><path fill="none" d="M0 0h16v16H0z"/></svg>
